source/svgs/bowtie/uE9F3-previous-frame.svg

<svg xmlns="http://www.w3.org/2000/svg" viewBox="0 0 448 448" enable-background="new 0 0 448 448"><path d="M384 416l-256-192 256-192v384zm-202.656-192l170.656 128v-256l-170.656 128zm-85.344-192h-32v384h32v-384z"/></svg>

<svg xmlns="http://www.w3.org/2000/svg" viewBox="0 0 448 448"><path d="M384 416L128 224 384 32v384zM181.344 224L352 352V96L181.344 224zM96 32H64v384h32V32z"/></svg>
